tools/download-figma-icons/icons/solid/safe-loading.svg

<svg width="24" height="24" viewBox="0 0 24 24" fill="none" xmlns="http://www.w3.org/2000/svg">
<path fill-rule="evenodd" clip-rule="evenodd" d="M17.5125 9.51003L15.9608 11.0625L16.0575 11.1675C16.515 11.625 16.515 12.375 16.0575 12.8325L15.075 13.815C14.3093 14.5725 13.3125 14.955 12.3225 14.955C11.6175 14.955 10.9125 14.76 10.3125 14.3693L8.4375 16.2443C8.2875 16.3875 8.1 16.4625 7.905 16.4625C7.7175 16.4625 7.52325 16.3875 7.37175 16.2443C7.08 15.9525 7.08 15.4725 7.37175 15.18L9.24675 13.305C8.8575 12.7125 8.64 12.0225 8.6325 11.295C8.6175 10.29 9.0075 9.33753 9.72 8.62503L10.785 7.56003C11.25 7.10253 11.9925 7.10253 12.4583 7.56003L12.555 7.66503L14.1075 6.10503C14.4075 5.81253 14.88 5.81253 15.1725 6.10503C15.4658 6.39753 15.4658 6.86928 15.1725 7.16253L13.6125 8.72253L14.8958 10.005L16.455 8.44503C16.7468 8.15178 17.22 8.15178 17.5125 8.44503C17.805 8.73753 17.805 9.21753 17.5125 9.51003ZM19.95 2.0925C16.8075 2.0925 15.87 1.47 15.045 0.915C14.37 0.46425 13.68 0 12.225 0C10.7707 0 10.0725 0.46425 9.39825 0.915C8.5725 1.47 7.635 2.0925 4.5 2.0925C4.08 2.0925 3.75 2.43 3.75 2.8425V13.83C3.75 16.1025 4.7625 18.21 6.5325 19.6193L11.76 23.775C11.8957 23.8875 12.0592 23.94 12.225 23.94C12.39 23.94 12.555 23.8875 12.69 23.775L17.9175 19.6193C19.6875 18.21 20.7 16.1025 20.7 13.83V2.8425C20.7 2.43 20.3625 2.0925 19.95 2.0925Z" fill="black"/>
</svg>

<svg xmlns="http://www.w3.org/2000/svg" width="24" height="24" fill="none" viewBox="0 0 24 24"><path fill="currentColor" fill-rule="evenodd" d="m17.513 9.51-1.552 1.553.097.104a1.18 1.18 0 0 1 0 1.665l-.983.983a3.9 3.9 0 0 1-2.752 1.14c-.706 0-1.41-.195-2.01-.586l-1.876 1.875a.77.77 0 0 1-.532.218.78.78 0 0 1-.533-.218.756.756 0 0 1 0-1.064l1.875-1.875a3.7 3.7 0 0 1-.614-2.01 3.68 3.68 0 0 1 1.087-2.67l1.065-1.065a1.19 1.19 0 0 1 1.673 0l.097.105 1.553-1.56a.756.756 0 0 1 1.064 0 .745.745 0 0 1 0 1.058l-1.56 1.56 1.284 1.282 1.559-1.56a.746.746 0 0 1 1.058 0 .756.756 0 0 1 0 1.065m2.437-7.417c-3.142 0-4.08-.623-4.905-1.178C14.37.465 13.68 0 12.225 0s-2.152.464-2.827.915C8.573 1.47 7.635 2.092 4.5 2.092c-.42 0-.75.338-.75.75V13.83a7.35 7.35 0 0 0 2.782 5.79l5.228 4.155a.72.72 0 0 0 .465.165.72.72 0 0 0 .465-.165l5.228-4.156A7.35 7.35 0 0 0 20.7 13.83V2.843a.75.75 0 0 0-.75-.75" clip-rule="evenodd"/></svg>
